rospo-dark/16x16/panel/livewallpaper-indicator.svg

<svg height="22" width="22" xmlns="http://www.w3.org/2000/svg"><path d="m3.8007813 4c-.4432001 0-.8007813.362375-.8007813.8125v11.375c0 .450125.3575812.8125.8007813.8125h2.1992187v1.1875c0 .450125.3723177.8125.8339844.8125h8.3320316c.461666 0 .833984-.362375.833984-.8125v-1.1875h2.199219c.4432 0 .800781-.362375.800781-.8125v-11.375c0-.450125-.357581-.8125-.800781-.8125zm.1992187 1h14v11h-14zm6 1a1 1 0 0 0 -1 1 1 1 0 0 0 1 1 1 1 0 0 0 1-1 1 1 0 0 0 -1-1zm5 0a2 2 0 0 0 -2 2 2 2 0 0 0 2 2 2 2 0 0 0 2-2 2 2 0 0 0 -2-2zm-8.5 3a1.5 1.5 0 0 0 -1.5 1.5 1.5 1.5 0 0 0 1.5 1.5 1.5 1.5 0 0 0 1.5-1.5 1.5 1.5 0 0 0 -1.5-1.5zm8.964844 2.400391a.5.5 0 0 0 -.464844.5.5.5 0 0 0  .5.5.5.5 0 0 0  .5-.5.5.5 0 0 0 -.5-.5.5.5 0 0 0 -.03516 0zm-3.464844.599609a1 1 0 0 0 -1 1 1 1 0 0 0 1 1 1 1 0 0 0 1-1 1 1 0 0 0 -1-1z" fill="#d3dae3"/></svg>

<svg xmlns="http://www.w3.org/2000/svg" width="22" height="22" version="1">
 <defs>
  <style id="current-color-scheme" type="text/css">
   .ColorScheme-Text { color:#d3dae3; } .ColorScheme-Highlight { color:#5294e2; }
  </style>
 </defs>
 <path style="fill:currentColor" class="ColorScheme-Text" d="M 3.8007813,4 C 3.3575812,4 3,4.362375 3,4.8125 l 0,11.375 C 3,16.637625 3.3575812,17 3.8007813,17 L 6,17 6,18.1875 C 6,18.637625 6.3723177,19 6.8339844,19 l 8.3320316,0 C 15.627682,19 16,18.637625 16,18.1875 L 16,17 18.199219,17 C 18.642419,17 19,16.637625 19,16.1875 L 19,4.8125 C 19,4.362375 18.642419,4 18.199219,4 L 3.8007813,4 Z M 4,5 18,5 18,16 4,16 4,5 Z m 6,1 A 1,1 0 0 0 9,7 1,1 0 0 0 10,8 1,1 0 0 0 11,7 1,1 0 0 0 10,6 Z m 5,0 a 2,2 0 0 0 -2,2 2,2 0 0 0 2,2 2,2 0 0 0 2,-2 2,2 0 0 0 -2,-2 z M 6.5,9 A 1.5,1.5 0 0 0 5,10.5 1.5,1.5 0 0 0 6.5,12 1.5,1.5 0 0 0 8,10.5 1.5,1.5 0 0 0 6.5,9 Z m 8.964844,2.400391 a 0.5,0.5 0 0 0 -0.464844,0.5 0.5,0.5 0 0 0 0.5,0.5 0.5,0.5 0 0 0 0.5,-0.5 0.5,0.5 0 0 0 -0.5,-0.5 0.5,0.5 0 0 0 -0.03516,0 z M 12,12 a 1,1 0 0 0 -1,1 1,1 0 0 0 1,1 1,1 0 0 0 1,-1 1,1 0 0 0 -1,-1 z"/>
</svg>
